void fun(){
	gcode{}
	gcode { }
	gcode{ G1 X0 G0 Y1 }
	gcode {
	}

	gcode
	{


}

	gcode{
		literally anything should be
		allowed in here, so im just
		writing some garbage to test it out.
		It should even be able to contain stuff like
		which is just obviously nonsense and
		not even gcode but that is the risk
		you take when using the gcode thing'
		}

		gcode{
(this code is copied from cura)
;FLAVOR:Marlin
;TIME:449
;Filament used: 0.181m
;Layer height: 0.2
;MINX:101.5
;MINY:101.5
;MINZ:0.2
;MAXX:133.5
;MAXY:133.5
;MAXZ:10
;Generated with Cura_SteamEngine 4.6.1
M140 S60
M105
M190 S60
M104 S200
M105
M109 S200
M82 ;absolute extrusion mode
; Ender 3 Custom Start G-code
G92 E0 ; Reset Extruder
G28 ; Home all axes
G1 Z2.0 F3000 ; Move Z Axis up little to prevent scratching of Heat Bed
G1 X0.1 Y20 Z0.3 F5000.0 ; Move to start position
G1 X0.1 Y200.0 Z0.3 F1500.0 E15 ; Draw the first line
G1 X0.4 Y200.0 Z0.3 F5000.0 ; Move to side a little
G1 X0.4 Y20 Z0.3 F1500.0 E30 ; Draw the second line
G92 E0 ; Reset Extruder
G1 Z2.0 F3000 ; Move Z Axis up little to prevent scratching of Heat Bed
G1 X5 Y20 Z0.3 F5000.0 ; Move over to prevent blob squish
G92 E0
G92 E0
G1 F1500 E-6.5
;LAYER_COUNT:50
;LAYER:0
M107
G0 F6000 X122.637 Y102.311 Z0.2
;TYPE:SKIRT
G1 F1500 E0
G1 F1200 X123.539 Y102.364 E0.03005
G1 X124.432 Y102.496 E0.06008
G1 X125.31 Y102.707 E0.09011
G1 X126.166 Y102.995 E0.12015
G1 X126.993 Y103.357 E0.15018
G1 X127.785 Y103.792 E0.18023
G1 X128.536 Y104.294 E0.21027
G1 X129.239 Y104.861 E0.24031
G1 X129.889 Y105.488 E0.27035
G1 X130.481 Y106.17 E0.30039
G1 X131.011 Y106.901 E0.33042
G1 X131.473 Y107.677 E0.36046
G1 X131.866 Y108.49 E0.39049
G1 X132.184 Y109.335 E0.42052
G1 X132.427 Y110.205 E0.45056
G1 X132.592 Y111.093 E0.4806
G1 X132.687 Y112.223 E0.51832
G1 X132.7 Y112.83 E0.53851
G1 X132.699 Y121.89 E0.83985
G1 X132.69 Y122.617 E0.86403
G1 X132.639 Y123.519 E0.89408
G1 X132.508 Y124.413 E0.92413
G1 X132.299 Y125.291 E0.95415
G1 X132.013 Y126.148 E0.9842
G1 X131.652 Y126.976 E1.01424
G1 X131.22 Y127.768 E1.04425
G1 X130.719 Y128.52 E1.0743
G1 X130.153 Y129.224 E1.10435
G1 X129.528 Y129.875 E1.13436
G1 X128.847 Y130.469 E1.16442
G1 X128.116 Y131 E1.19447
G1 X127.342 Y131.464 E1.22449
G1 X126.529 Y131.858 E1.25453
G1 X125.685 Y132.178 E1.28456
G1 X124.815 Y132.423 E1.31462
G1 X123.928 Y132.589 E1.34463
G1 X122.777 Y132.687 E1.38305
G1 X122.17 Y132.7 E1.40325
G1 X113.075 Y132.699 E1.70575
G1 X112.377 Y132.69 E1.72896
G1 X111.476 Y132.639 E1.75898
G1 X110.582 Y132.507 E1.78904
G1 X109.704 Y132.298 E1.81906
G1 X108.847 Y132.011 E1.84912
G1 X108.02 Y131.65 E1.87913
G1 X107.227 Y131.217 E1.90918
G1 X106.476 Y130.716 E1.93921
G1 X105.772 Y130.15 E1.96925
G1 X105.121 Y129.524 E1.99929
G1 X104.528 Y128.843 E2.02932
G1 X103.998 Y128.112 E2.05935
G1 X103.534 Y127.337 E2.0894
G1 X103.14 Y126.524 E2.11945
G1 X102.82 Y125.68 E2.14947
G1 X102.576 Y124.81 E2.17952
G1 X102.41 Y123.922 E2.20957
G1 X102.313 Y122.767 E2.24812
G1 X102.3 Y122.158 E2.26838
G1 X102.301 Y113.036 E2.57178
G1 X102.31 Y112.371 E2.5939
G1 X102.362 Y111.469 E2.62395
G1 X102.494 Y110.576 E2.65397
G1 X102.704 Y109.698 E2.684
G1 X102.991 Y108.841 E2.71406
G1 X103.353 Y108.014 E2.74408
G1 X103.786 Y107.222 E2.7741
G1 X104.288 Y106.471 E2.80415
G1 X104.855 Y105.767 E2.83421
G1 X105.481 Y105.117 E2.86423
G1 X106.162 Y104.524 E2.89426
G1 X106.894 Y103.994 E2.92432
G1 X107.669 Y103.531 E2.95435
G1 X108.482 Y103.138 E2.98438
G1 X109.327 Y102.818 E3.01443
G1 X110.196 Y102.575 E3.04445
G1 X111.084 Y102.409 E3.07449
G1 X112.223 Y102.313 E3.11251
G1 X112.83 Y102.3 E3.1327
G1 X121.939 Y102.301 E3.43567
G1 X122.637 Y102.311 E3.45889
G0 F6000 X122.643 Y101.911
G1 F1200 X123.562 Y101.964 E3.4895
G1 X124.473 Y102.097 E3.52013
G1 X125.369 Y102.308 E3.55074
G1 X126.243 Y102.596 E3.58135
G1 X127.09 Y102.959 E3.612
G1 X127.901 Y103.394 E3.64261
G1 X128.671 Y103.898 E3.67322
G1 X129.395 Y104.467 E3.70384
G1 X130.067 Y105.097 E3.73448
G1 X130.682 Y105.782 E3.7651
G1 X131.235 Y106.518 E3.79572
G1 X131.722 Y107.299 E3.82633
G1 X132.139 Y108.12 E3.85696
G1 X132.484 Y108.974 E3.88759
G1 X132.753 Y109.854 E3.9182
G1 X132.945 Y110.755 E3.94884
G1 X133.058 Y111.668 E3.97944
G1 X133.087 Y112.212 E3.99756
G1 X133.1 Y112.83 E4.01811
G1 X133.099 Y121.895 E4.31962
G1 X133.09 Y122.622 E4.3438
G1 X133.039 Y123.541 E4.37441
G1 X132.908 Y124.453 E4.40506
G1 X132.698 Y125.349 E4.43567
G1 X132.412 Y126.224 E4.46628
G1 X132.051 Y127.071 E4.49691
G1 X131.617 Y127.883 E4.52753
G1 X131.115 Y128.655 E4.55816
G1 X130.547 Y129.38 E4.58879
G1 X129.919 Y130.053 E4.61941
G1 X129.235 Y130.669 E4.65002
G1 X128.5 Y131.223 E4.68064
G1 X127.72 Y131.712 E4.71125
G1 X126.9 Y132.131 E4.74188
G1 X126.047 Y132.477 E4.7725
G1 X125.167 Y132.748 E4.80312
G1 X124.267 Y132.941 E4.83374
G1 X123.353 Y133.056 E4.86438
G1 X122.788 Y133.087 E4.8832
G1 X122.17 Y133.1 E4.90376
G1 X113.07 Y133.099 E5.20642
G1 X112.372 Y133.09 E5.22964
G1 X111.453 Y133.038 E5.26026
G1 X110.542 Y132.907 E5.29087
G1 X109.646 Y132.697 E5.32148
G1 X108.771 Y132.41 E5.35211
G1 X107.924 Y132.048 E5.38274
G1 X107.112 Y131.614 E5.41336
G1 X106.341 Y131.112 E5.44396
G1 X105.616 Y130.544 E5.4746
G1 X104.943 Y129.915 E5.50524
G1 X104.328 Y129.231 E5.53583
G1 X103.774 Y128.496 E5.56644
G1 X103.286 Y127.715 E5.59707
G1 X102.867 Y126.895 E5.6277
G1 X102.521 Y126.042 E5.65832
G1 X102.251 Y125.162 E5.68893
G1 X102.058 Y124.261 E5.71958
G1 X101.944 Y123.348 E5.75018
G1 X101.913 Y122.777 E5.7692
G1 X101.9 Y122.158 E5.78979
G1 X101.901 Y113.031 E6.09336
G1 X101.91 Y112.366 E6.11548
G1 X101.962 Y111.446 E6.14613
G1 X102.094 Y110.535 E6.17674
G1 X102.305 Y109.639 E6.20736
G1 X102.592 Y108.764 E6.23799
G1 X102.955 Y107.918 E6.26861
G1 X103.389 Y107.106 E6.29923
G1 X103.892 Y106.335 E6.32985
G1 X104.461 Y105.611 E6.36047
G1 X105.089 Y104.939 E6.39107
G1 X105.774 Y104.323 E6.42171
G1 X106.51 Y103.77 E6.45233
G1 X107.291 Y103.282 E6.48296
G1 X108.111 Y102.864 E6.51357
G1 X108.965 Y102.519 E6.5442
G1 X109.845 Y102.249 E6.57482
G1 X110.745 Y102.057 E6.60543
G1 X111.659 Y101.943 E6.63606
G1 X112.212 Y101.913 E6.65448
G1 X112.83 Y101.9 E6.67504
G1 X121.945 Y101.901 E6.97821
G1 X122.643 Y101.911 E7.00142
G0 F6000 X122.649 Y101.511
G1 F1200 X123.585 Y101.565 E7.03261
G1 X124.513 Y101.697 E7.06378
G1 X125.427 Y101.909 E7.09499
G1 X126.319 Y102.198 E7.12618
G1 X127.184 Y102.561 E7.15738
G1 X128.014 Y102.997 E7.18856
G1 X128.805 Y103.502 E7.21977
G1 X129.549 Y104.073 E7.25097
G1 X130.242 Y104.705 E7.28216
G1 X130.879 Y105.393 E7.31335
G1 X131.454 Y106.134 E7.34454
G1 X131.965 Y106.92 E7.37572
G1 X132.407 Y107.748 E7.40694
G1 X132.776 Y108.61 E7.43813
G1 X133.071 Y109.5 E7.46931
G1 X133.289 Y110.412 E7.5005
G1 X133.429 Y111.34 E7.53172
G1 X133.487 Y112.201 E7.56042
G1 X133.5 Y112.83 E7.58134
G1 X133.499 Y121.9 E7.88301
G1 X133.49 Y122.627 E7.90719
G1 X133.439 Y123.564 E7.93841
G1 X133.307 Y124.492 E7.96958
G1 X133.098 Y125.406 E8.00077
G1 X132.811 Y126.299 E8.03196
G1 X132.449 Y127.165 E8.06318
G1 X132.015 Y127.996 E8.09436
G1 X131.511 Y128.787 E8.12556
G1 X130.942 Y129.532 E8.15674
G1 X130.311 Y130.227 E8.18796
G1 X129.624 Y130.865 E8.21914
G1 X128.885 Y131.442 E8.25033
G1 X128.099 Y131.954 E8.28153
G1 X127.273 Y132.397 E8.3127
G1 X126.411 Y132.769 E8.34393
G1 X125.522 Y133.065 E8.37509
G1 X124.61 Y133.285 E8.4063
G1 X123.683 Y133.426 E8.43748
G1 X122.799 Y133.487 E8.46695
G1 X122.17 Y133.5 E8.48788
G1 X113.065 Y133.499 E8.79071
G1 X112.367 Y133.49 E8.81393
G1 X111.431 Y133.438 E8.84511
G1 X110.502 Y133.306 E8.87632
G1 X109.588 Y133.096 E8.90751
G1 X108.695 Y132.809 E8.93871
G1 X107.83 Y132.446 E8.96991
G1 X106.999 Y132.012 E9.00109
G1 X106.208 Y131.508 E9.03229
G1 X105.463 Y130.938 E9.06349
G1 X104.769 Y130.307 E9.09468
G1 X104.132 Y129.62 E9.12584
G1 X103.555 Y128.88 E9.15705
G1 X103.043 Y128.094 E9.18825
G1 X102.6 Y127.267 E9.21946
G1 X102.229 Y126.406 E9.25064
G1 X101.933 Y125.516 E9.28183
G1 X101.714 Y124.604 E9.31303
G1 X101.573 Y123.677 E9.34422
G1 X101.513 Y122.788 E9.37385
G1 X101.5 Y122.158 E9.39481
G1 X101.501 Y113.025 E9.69858
G1 X101.51 Y112.36 E9.7207
G1 X101.563 Y111.424 E9.75188
G1 X101.695 Y110.495 E9.78309
G1 X101.906 Y109.581 E9.81429
G1 X102.194 Y108.689 E9.84546
G1 X102.557 Y107.824 E9.87666
G1 X102.992 Y106.993 E9.90786
G1 X103.496 Y106.203 E9.93903
G1 X104.066 Y105.458 E9.97023
G1 X104.698 Y104.764 E10.00145
G1 X105.386 Y104.127 E10.03263
G1 X106.126 Y103.551 E10.06382
G1 X106.912 Y103.039 E10.09502
G1 X107.739 Y102.597 E10.12621
G1 X108.601 Y102.227 E10.15741
G1 X109.491 Y101.931 E10.1886
G1 X110.403 Y101.713 E10.21979
G1 X111.33 Y101.572 E10.25098
G1 X112.201 Y101.513 E10.28001
G1 X112.83 Y101.5 E10.30094
G1 X121.951 Y101.501 E10.60431
G1 X122.649 Y101.511 E10.62752
G1 F1500 E4.12752
;MESH:cube.stl
G0 F6000 X122.086 Y111.835
G0 X122.086 Y112.914
G0 X121.718 Y121.718
G0 X113.1 Y121.9
;TYPE:WALL-INNER
G1 F1500 E10.62752
G1 F1200 X113.1 Y113.1 E10.92021
G1 X121.9 Y113.1 E11.2129
G1 X121.9 Y121.9 E11.50559
G1 X113.1 Y121.9 E11.79828
G0 F6000 X112.7 Y122.3
;TYPE:WALL-OUTER
G1 F1200 X112.7 Y112.7 E12.11758
G1 X122.3 Y112.7 E12.43687
G1 X122.3 Y122.3 E12.75617
G1 X112.7 Y122.3 E13.07547
G0 F6000 X112.97 Y122.03
G0 X113.21 Y121.51
G0 X113.49 Y121.51
;TYPE:SKIN
G1 F1200 X113.49 Y113.49 E13.34222
G1 X121.51 Y113.49 E13.60896
G1 X121.51 Y121.51 E13.87571
G1 X113.49 Y121.51 E14.14245
G0 F6000 X113.995 Y121.349
G1 F1200 X113.649 Y121.003 E14.15873
G0 F6000 X113.649 Y120.437
G1 F1200 X114.561 Y121.349 E14.20163
G0 F6000 X115.126 Y121.349
G1 F1200 X113.649 Y119.872 E14.2711
G0 F6000 X113.649 Y119.306
G1 F1200 X115.692 Y121.349 E14.3672
G0 F6000 X116.258 Y121.349
G1 F1200 X113.649 Y118.74 E14.48992
G0 F6000 X113.649 Y118.175
G1 F1200 X116.823 Y121.349 E14.63921
G0 F6000 X117.389 Y121.349
G1 F1200 X113.649 Y117.609 E14.81513
G0 F6000 X113.649 Y117.043
G1 F1200 X117.955 Y121.349 E15.01767
G0 F6000 X118.52 Y121.349
G1 F1200 X113.649 Y116.478 E15.24679
G0 F6000 X113.649 Y115.912
G1 F1200 X119.086 Y121.349 E15.50253
G0 F6000 X119.652 Y121.349
G1 F1200 X113.649 Y115.346 E15.78489
G0 F6000 X113.649 Y114.781
G1 F1200 X120.218 Y121.349 E16.09385
G0 F6000 X120.783 Y121.349
G1 F1200 X113.649 Y114.215 E16.42941
G0 F6000 X113.649 Y113.649
G1 F1200 X121.349 Y121.349 E16.7916
G0 F6000 X121.349 Y120.783
G1 F1200 X114.216 Y113.65 E17.12711
G0 F6000 X114.781 Y113.65
G1 F1200 X121.349 Y120.218 E17.43605
G0 F6000 X121.349 Y119.652
G1 F1200 X115.347 Y113.65 E17.71837
G0 F6000 X115.913 Y113.65
G1 F1200 X121.349 Y119.086 E17.97406
G0 F6000 X121.349 Y118.52
G1 F1200 X116.478 Y113.65 E18.20315
G0 F6000 X117.044 Y113.65
G1 F1200 X121.349 Y117.955 E18.40565
G0 F6000 X121.349 Y117.389
G1 F1200 X117.61 Y113.65 E18.58152
G0 F6000 X118.175 Y113.65
G1 F1200 X121.349 Y116.823 E18.73079
G0 F6000 X121.349 Y116.258
G1 F1200 X118.741 Y113.65 E18.85346
G0 F6000 X119.307 Y113.65
G1 F1200 X121.349 Y115.692 E18.94951
G0 F6000 X121.349 Y115.126
G1 F1200 X119.872 Y113.65 E19.01896
G0 F6000 X120.438 Y113.65
G1 F1200 X121.349 Y114.561 E19.06181
G0 F6000 X121.349 Y113.995
G1 F1200 X121.004 Y113.65 E19.07804
G0 F6000 X121.004 Y113.3
;MESH:NONMESH
G0 F300 X121.004 Y113.3 Z0.4
G0 F6000 X121.004 Y113.21
G0 X113.282 Y113.282
G0 X113.1 Y121.9
;TIME_ELAPSED:37.292322
;LAYER:1
M140 S60
M106 S85
;TYPE:WALL-INNER
;MESH:cube.stl
G1 F1350 X113.1 Y113.1 E19.37073
G1 X121.9 Y113.1 E19.66342
G1 X121.9 Y121.9 E19.95611
G1 X113.1 Y121.9 E20.2488
G0 F7500 X112.7 Y122.3
;TYPE:WALL-OUTER
G1 F1350 X112.7 Y112.7 E20.56809
G1 X122.3 Y112.7 E20.88739
G1 X122.3 Y122.3 E21.20669
G1 X112.7 Y122.3 E21.52599
G0 F7500 X112.97 Y122.03
G0 X113.21 Y121.51
G0 X113.49 Y121.51
;TYPE:SKIN
G1 F1350 X113.49 Y113.49 E21.79273
G1 X121.51 Y113.49 E22.05948
G1 X121.51 Y121.51 E22.32622
G1 X113.49 Y121.51 E22.59297
G0 F7500 X113.21 Y121.51
G0 X113.21 Y113.755
G0 X113.65 Y113.755
G1 F1350 X113.755 Y113.649 E22.59793
G0 F7500 X114.321 Y113.649
G1 F1350 X113.65 Y114.32 E22.6295
G0 F7500 X113.65 Y114.886
G1 F1350 X114.887 Y113.649 E22.68768
G0 F7500 X115.452 Y113.649
G1 F1350 X113.65 Y115.452 E22.77246
G0 F7500 X113.65 Y116.017
G1 F1350 X116.018 Y113.649 E22.88385
G0 F7500 X116.584 Y113.649
G1 F1350 X113.65 Y116.583 E23.02185
G0 F7500 X113.65 Y117.149
G1 F1350 X117.149 Y113.649 E23.18646
G0 F7500 X117.715 Y113.649
G1 F1350 X113.65 Y117.714 E23.37766
G0 F7500 X113.65 Y118.28
G1 F1350 X118.281 Y113.649 E23.59549
G0 F7500 X118.846 Y113.649
G1 F1350 X113.65 Y118.846 E23.83992
G0 F7500 X113.65 Y119.411
G1 F1350 X119.412 Y113.649 E24.11095
G0 F7500 X119.978 Y113.649
G1 F1350 X113.65 Y119.977 E24.4086
G0 F7500 X113.65 Y120.543
G1 F1350 X120.544 Y113.649 E24.73287
G0 F7500 X121.109 Y113.649
G1 F1350 X113.65 Y121.109 E25.08374
G0 F7500 X113.975 Y121.349
G1 F1350 X121.349 Y113.975 E25.43059
G0 F7500 X121.349 Y114.541
G1 F1350 X114.541 Y121.349 E25.75082
G0 F7500 X115.107 Y121.349
G1 F1350 X121.349 Y115.107 E26.04442
G0 F7500 X121.349 Y115.672
G1 F1350 X115.672 Y121.349 E26.31145
G0 F7500 X116.238 Y121.349
G1 F1350 X121.349 Y116.238 E26.55186
G0 F7500 X121.349 Y116.804
G1 F1350 X116.804 Y121.349 E26.76564
G0 F7500 X117.369 Y121.349
G1 F1350 X121.349 Y117.369 E26.95285
G0 F7500 X121.349 Y117.935
G1 F1350 X117.935 Y121.349 E27.11343
G0 F7500 X118.501 Y121.349
G1 F1350 X121.349 Y118.501 E27.24739
G0 F7500 X121.349 Y119.066
G1 F1350 X119.066 Y121.349 E27.35478
G0 F7500 X119.632 Y121.349
G1 F1350 X121.349 Y119.632 E27.43554
G0 F7500 X121.349 Y120.198
G1 F1350 X120.198 Y121.349 E27.48968
G0 F7500 X120.763 Y121.349
G1 F1350 X121.349 Y120.763 E27.51724
G0 F7500 X121.7 Y120.763
;MESH:NONMESH
G0 F300 X121.7 Y120.763 Z0.6
G0 F7500 X121.79 Y120.763
G0 X121.718 Y121.718
G0 X113.1 Y121.9
;TIME_ELAPSED:51.650644
;LAYER:2
M106 S170
;TYPE:WALL-INNER
;MESH:cube.stl
G1 F1500 X113.1 Y113.1 E27.80993
G1 X121.9 Y113.1 E28.10262
G1 X121.9 Y121.9 E28.39531
G1 X113.1 Y121.9 E28.688
G0 F9000 X112.7 Y122.3
;TYPE:WALL-OUTER
G1 F1500 X112.7 Y112.7 E29.0073
G1 X122.3 Y112.7 E29.3266
G1 X122.3 Y122.3 E29.64589
G1 X112.7 Y122.3 E29.96519
G0 F9000 X112.97 Y122.03
G0 X113.21 Y121.51
G0 X113.49 Y121.51
;TYPE:SKIN
G1 F1500 X113.49 Y113.49 E30.23194
G1 X121.51 Y113.49 E30.49868
G1 X121.51 Y121.51 E30.76543
G1 X113.49 Y121.51 E31.03218
G0 F9000 X113.995 Y121.349
G1 F1500 X113.649 Y121.003 E31.04845
G0 F9000 X113.649 Y120.437
G1 F1500 X114.561 Y121.349 E31.09135
G0 F9000 X115.126 Y121.349
G1 F1500 X113.649 Y119.872 E31.16082
G0 F9000 X113.649 Y119.306
G1 F1500 X115.692 Y121.349 E31.25692
G0 F9000 X116.258 Y121.349
G1 F1500 X113.649 Y118.74 E31.37964
G0 F9000 X113.649 Y118.175
G1 F1500 X116.823 Y121.349 E31.52893
G0 F9000 X117.389 Y121.349
G1 F1500 X113.649 Y117.609 E31.70485
G0 F9000 X113.649 Y117.043
G1 F1500 X117.955 Y121.349 E31.90739
G0 F9000 X118.52 Y121.349
G1 F1500 X113.649 Y116.478 E32.13651
G0 F9000 X113.649 Y115.912
G1 F1500 X119.086 Y121.349 E32.39225
G0 F9000 X119.652 Y121.349
G1 F1500 X113.649 Y115.346 E32.67461
G0 F9000 X113.649 Y114.781
G1 F1500 X120.218 Y121.349 E32.98357
G0 F9000 X120.783 Y121.349
G1 F1500 X113.649 Y114.215 E33.31913
G0 F9000 X113.649 Y113.649
G1 F1500 X121.349 Y121.349 E33.68132
G0 F9000 X121.349 Y120.783
G1 F1500 X114.216 Y113.65 E34.01683
G0 F9000 X114.781 Y113.65
G1 F1500 X121.349 Y120.218 E34.32577
G0 F9000 X121.349 Y119.652
G1 F1500 X115.347 Y113.65 E34.60809
G0 F9000 X115.913 Y113.65
G1 F1500 X121.349 Y119.086 E34.86378
G0 F9000 X121.349 Y118.52
G1 F1500 X116.478 Y113.65 E35.09287
G0 F9000 X117.044 Y113.65
G1 F1500 X121.349 Y117.955 E35.29537
G0 F9000 X121.349 Y117.389
G1 F1500 X117.61 Y113.65 E35.47124
G0 F9000 X118.175 Y113.65
G1 F1500 X121.349 Y116.823 E35.62051
G0 F9000 X121.349 Y116.258
G1 F1500 X118.741 Y113.65 E35.74318
G0 F9000 X119.307 Y113.65
G1 F1500 X121.349 Y115.692 E35.83923
G0 F9000 X121.349 Y115.126
G1 F1500 X119.872 Y113.65 E35.90868
G0 F9000 X120.438 Y113.65
G1 F1500 X121.349 Y114.561 E35.95153
G0 F9000 X121.349 Y113.995
G1 F1500 X121.004 Y113.65 E35.96776
G0 F9000 X121.004 Y113.3
;MESH:NONMESH
G0 F300 X121.004 Y113.3 Z0.8
G0 F9000 X121.004 Y113.21
G0 X113.282 Y113.282
G0 X113.1 Y121.9
;TIME_ELAPSED:65.020280
;LAYER:3
M106 S255
;TYPE:WALL-INNER
;MESH:cube.stl
G1 F1500 X113.1 Y113.1 E36.26045
G1 X121.9 Y113.1 E36.55314
G1 X121.9 Y121.9 E36.84583
G1 X113.1 Y121.9 E37.13852
G0 F9000 X112.7 Y122.3
;TYPE:WALL-OUTER
G1 F1500 X112.7 Y112.7 E37.45781
G1 X122.3 Y112.7 E37.77711
G1 X122.3 Y122.3 E38.09641
G1 X112.7 Y122.3 E38.41571
G0 F9000 X112.97 Y122.03
G0 X113.21 Y121.51
G0 X113.49 Y121.51
;TYPE:SKIN
G1 F1500 X113.49 Y113.49 E38.68245
G1 X121.51 Y113.49 E38.9492
G1 X121.51 Y121.51 E39.21595
G1 X113.49 Y121.51 E39.48269
G0 F9000 X113.21 Y121.51
G0 X113.21 Y113.755
G0 X113.65 Y113.755
G1 F1500 X113.755 Y113.649 E39.48765
G0 F9000 X114.321 Y113.649
G1 F1500 X113.65 Y114.32 E39.51922
G0 F9000 X113.65 Y114.886
G1 F1500 X114.887 Y113.649 E39.5774
G0 F9000 X115.452 Y113.649
G1 F1500 X113.65 Y115.452 E39.66218
G0 F9000 X113.65 Y116.017
G1 F1500 X116.018 Y113.649 E39.77357
G0 F9000 X116.584 Y113.649
G1 F1500 X113.65 Y116.583 E39.91157
G0 F9000 X113.65 Y117.149
G1 F1500 X117.149 Y113.649 E40.07618
G0 F9000 X117.715 Y113.649
G1 F1500 X113.65 Y117.714 E40.26739
G0 F9000 X113.65 Y118.28
G1 F1500 X118.281 Y113.649 E40.48521
G0 F9000 X118.846 Y113.649
G1 F1500 X113.65 Y118.846 E40.72964
G0 F9000 X113.65 Y119.411
G1 F1500 X119.412 Y113.649 E41.00067
G0 F9000 X119.978 Y113.649
G1 F1500 X113.65 Y119.977 E41.29832
G0 F9000 X113.65 Y120.543
G1 F1500 X120.544 Y113.649 E41.62259
G0 F9000 X121.109 Y113.649
G1 F1500 X113.65 Y121.109 E41.97346
G0 F9000 X113.975 Y121.349
G1 F1500 X121.349 Y113.975 E42.32031
G0 F9000 X121.349 Y114.541
G1 F1500 X114.541 Y121.349 E42.64054
G0 F9000 X115.107 Y121.349
G1 F1500 X121.349 Y115.107 E42.93414
G0 F9000 X121.349 Y115.672
G1 F1500 X115.672 Y121.349 E43.20117
G0 F9000 X116.238 Y121.349
G1 F1500 X121.349 Y116.238 E43.44158
G0 F9000 X121.349 Y116.804
G1 F1500 X116.804 Y121.349 E43.65536
G0 F9000 X117.369 Y121.349
G1 F1500 X121.349 Y117.369 E43.84257
G0 F9000 X121.349 Y117.935
G1 F1500 X117.935 Y121.349 E44.00315
G0 F9000 X118.501 Y121.349
G1 F1500 X121.349 Y118.501 E44.13711
G0 F9000 X121.349 Y119.066
G1 F1500 X119.066 Y121.349 E44.2445
G0 F9000 X119.632 Y121.349
G1 F1500 X121.349 Y119.632 E44.32526
G0 F9000 X121.349 Y120.198
G1 F1500 X120.198 Y121.349 E44.3794
G0 F9000 X120.763 Y121.349
G1 F1500 X121.349 Y120.763 E44.40696
G0 F9000 X121.7 Y120.763
;MESH:NONMESH
G0 F300 X121.7 Y120.763 Z1
G0 F9000 X121.79 Y120.763
G0 X121.718 Y121.718
G0 X113.1 Y121.9
;TIME_ELAPSED:78.437989
;LAYER:4
;TYPE:WALL-INNER
;MESH:cube.stl
G1 F600 X113.1 Y113.1 E44.69965
G1 X121.9 Y113.1 E44.99234
G1 X121.9 Y121.9 E45.28503
G1 X113.1 Y121.9 E45.57772
G0 F9000 X112.7 Y122.3
;TYPE:WALL-OUTER
G1 F600 X112.7 Y112.7 E45.89702
G1 X122.3 Y112.7 E46.21632
G1 X122.3 Y122.3 E46.53561
G1 X112.7 Y122.3 E46.85491
G0 F9000 X113.028 Y121.972
;MESH:NONMESH
G0 F300 X113.028 Y121.972 Z1.2
G0 F9000 X113.1 Y121.9
;TIME_ELAPSED:86.001715
;LAYER:5
;TYPE:WALL-INNER
;MESH:cube.stl
G1 F600 X113.1 Y113.1 E47.1476
G1 X121.9 Y113.1 E47.44029
G1 X121.9 Y121.9 E47.73298
G1 X113.1 Y121.9 E48.02567
G0 F9000 X112.7 Y122.3
;TYPE:WALL-OUTER
G1 F600 X112.7 Y112.7 E48.34496
G1 X122.3 Y112.7 E48.66426
G1 X122.3 Y122.3 E48.98356
G1 X112.7 Y122.3 E49.30286
G0 F9000 X113.028 Y121.972
;MESH:NONMESH
G0 F300 X113.028 Y121.972 Z1.4
G0 F9000 X113.1 Y121.9
;TIME_ELAPSED:93.565442
;LAYER:6
;TYPE:WALL-INNER
;MESH:cube.stl
G1 F600 X113.1 Y113.1 E49.59555
G1 X121.9 Y113.1 E49.88824
G1 X121.9 Y121.9 E50.18092
G1 X113.1 Y121.9 E50.47361
G0 F9000 X112.7 Y122.3
;TYPE:WALL-OUTER
G1 F600 X112.7 Y112.7 E50.79291
G1 X122.3 Y112.7 E51.11221
G1 X122.3 Y122.3 E51.43151
G1 X112.7 Y122.3 E51.7508
G0 F9000 X113.028 Y121.972
;MESH:NONMESH
G0 F300 X113.028 Y121.972 Z1.6
G0 F9000 X113.1 Y121.9
;TIME_ELAPSED:101.129169
;LAYER:7
;TYPE:WALL-INNER
;MESH:cube.stl
G1 F600 X113.1 Y113.1 E52.04349
G1 X121.9 Y113.1 E52.33618
G1 X121.9 Y121.9 E52.62887
G1 X113.1 Y121.9 E52.92156
G0 F9000 X112.7 Y122.3
;TYPE:WALL-OUTER
G1 F600 X112.7 Y112.7 E53.24086
G1 X122.3 Y112.7 E53.56015
G1 X122.3 Y122.3 E53.87945
G1 X112.7 Y122.3 E54.19875
G0 F9000 X113.028 Y121.972
;MESH:NONMESH
G0 F300 X113.028 Y121.972 Z1.8
G0 F9000 X113.1 Y121.9
;TIME_ELAPSED:108.692895
;LAYER:8
;TYPE:WALL-INNER
;MESH:cube.stl
G1 F600 X113.1 Y113.1 E54.49144
G1 X121.9 Y113.1 E54.78413
G1 X121.9 Y121.9 E55.07682
G1 X113.1 Y121.9 E55.36951
G0 F9000 X112.7 Y122.3
;TYPE:WALL-OUTER
G1 F600 X112.7 Y112.7 E55.6888
G1 X122.3 Y112.7 E56.0081
G1 X122.3 Y122.3 E56.3274
G1 X112.7 Y122.3 E56.64669
G0 F9000 X113.028 Y121.972
;MESH:NONMESH
G0 F300 X113.028 Y121.972 Z2
G0 F9000 X113.1 Y121.9
;TIME_ELAPSED:116.256622
;LAYER:9
;TYPE:WALL-INNER
;MESH:cube.stl
G1 F600 X113.1 Y113.1 E56.93938
G1 X121.9 Y113.1 E57.23207
G1 X121.9 Y121.9 E57.52476
G1 X113.1 Y121.9 E57.81745
G0 F9000 X112.7 Y122.3
;TYPE:WALL-OUTER
G1 F600 X112.7 Y112.7 E58.13675
G1 X122.3 Y112.7 E58.45605
G1 X122.3 Y122.3 E58.77534
G1 X112.7 Y122.3 E59.09464
G0 F9000 X113.028 Y121.972
;MESH:NONMESH
G0 F300 X113.028 Y121.972 Z2.2
G0 F9000 X113.1 Y121.9
;TIME_ELAPSED:123.820348
;LAYER:10
;TYPE:WALL-INNER
;MESH:cube.stl
G1 F600 X113.1 Y113.1 E59.38733
G1 X121.9 Y113.1 E59.68002
G1 X121.9 Y121.9 E59.97271
G1 X113.1 Y121.9 E60.2654
G0 F9000 X112.7 Y122.3
;TYPE:WALL-OUTER
G1 F600 X112.7 Y112.7 E60.58469
G1 X122.3 Y112.7 E60.90399
G1 X122.3 Y122.3 E61.22329
G1 X112.7 Y122.3 E61.54259
G0 F9000 X113.028 Y121.972
;MESH:NONMESH
G0 F300 X113.028 Y121.972 Z2.4
G0 F9000 X113.1 Y121.9
;TIME_ELAPSED:131.384075
;LAYER:11
;TYPE:WALL-INNER
;MESH:cube.stl
G1 F600 X113.1 Y113.1 E61.83528
G1 X121.9 Y113.1 E62.12796
G1 X121.9 Y121.9 E62.42065
G1 X113.1 Y121.9 E62.71334
G0 F9000 X112.7 Y122.3
;TYPE:WALL-OUTER
G1 F600 X112.7 Y112.7 E63.03264
G1 X122.3 Y112.7 E63.35194
G1 X122.3 Y122.3 E63.67124
G1 X112.7 Y122.3 E63.99053
G0 F9000 X113.028 Y121.972
;MESH:NONMESH
G0 F300 X113.028 Y121.972 Z2.6
G0 F9000 X113.1 Y121.9
;TIME_ELAPSED:138.947801
;LAYER:12
;TYPE:WALL-INNER
;MESH:cube.stl
G1 F600 X113.1 Y113.1 E64.28322
G1 X121.9 Y113.1 E64.57591
G1 X121.9 Y121.9 E64.8686
G1 X113.1 Y121.9 E65.16129
G0 F9000 X112.7 Y122.3
;TYPE:WALL-OUTER
G1 F600 X112.7 Y112.7 E65.48059
G1 X122.3 Y112.7 E65.79988
G1 X122.3 Y122.3 E66.11918
G1 X112.7 Y122.3 E66.43848
G0 F9000 X113.028 Y121.972
;MESH:NONMESH
G0 F300 X113.028 Y121.972 Z2.8
G0 F9000 X113.1 Y121.9
;TIME_ELAPSED:146.511528
;LAYER:13
;TYPE:WALL-INNER
;MESH:cube.stl
G1 F600 X113.1 Y113.1 E66.73117
G1 X121.9 Y113.1 E67.02386
G1 X121.9 Y121.9 E67.31655
G1 X113.1 Y121.9 E67.60924
G0 F9000 X112.7 Y122.3
;TYPE:WALL-OUTER
G1 F600 X112.7 Y112.7 E67.92853
G1 X122.3 Y112.7 E68.24783
G1 X122.3 Y122.3 E68.56713
G1 X112.7 Y122.3 E68.88642
G0 F9000 X113.028 Y121.972
;MESH:NONMESH
G0 F300 X113.028 Y121.972 Z3
G0 F9000 X113.1 Y121.9
;TIME_ELAPSED:154.075254
;LAYER:14
;TYPE:WALL-INNER
;MESH:cube.stl
G1 F600 X113.1 Y113.1 E69.17911
G1 X121.9 Y113.1 E69.4718
G1 X121.9 Y121.9 E69.76449
G1 X113.1 Y121.9 E70.05718
G0 F9000 X112.7 Y122.3
;TYPE:WALL-OUTER
G1 F600 X112.7 Y112.7 E70.37648
G1 X122.3 Y112.7 E70.69578
G1 X122.3 Y122.3 E71.01507
G1 X112.7 Y122.3 E71.33437
G0 F9000 X113.028 Y121.972
;MESH:NONMESH
G0 F300 X113.028 Y121.972 Z3.2
G0 F9000 X113.1 Y121.9
;TIME_ELAPSED:161.638981
;LAYER:15
;TYPE:WALL-INNER
;MESH:cube.stl
G1 F600 X113.1 Y113.1 E71.62706
G1 X121.9 Y113.1 E71.91975
G1 X121.9 Y121.9 E72.21244
G1 X113.1 Y121.9 E72.50513
G0 F9000 X112.7 Y122.3
;TYPE:WALL-OUTER
G1 F600 X112.7 Y112.7 E72.82442
G1 X122.3 Y112.7 E73.14372
G1 X122.3 Y122.3 E73.46302
G1 X112.7 Y122.3 E73.78232
G0 F9000 X113.028 Y121.972
;MESH:NONMESH
G0 F300 X113.028 Y121.972 Z3.4
G0 F9000 X113.1 Y121.9
;TIME_ELAPSED:169.202707
;LAYER:16
;TYPE:WALL-INNER
;MESH:cube.stl
G1 F600 X113.1 Y113.1 E74.07501
G1 X121.9 Y113.1 E74.36769
G1 X121.9 Y121.9 E74.66038
G1 X113.1 Y121.9 E74.95307
G0 F9000 X112.7 Y122.3
;TYPE:WALL-OUTER
G1 F600 X112.7 Y112.7 E75.27237
G1 X122.3 Y112.7 E75.59167
G1 X122.3 Y122.3 E75.91096
G1 X112.7 Y122.3 E76.23026
G0 F9000 X113.028 Y121.972
;MESH:NONMESH
G0 F300 X113.028 Y121.972 Z3.6
G0 F9000 X113.1 Y121.9
;TIME_ELAPSED:176.766434
;LAYER:17
;TYPE:WALL-INNER
;MESH:cube.stl
G1 F600 X113.1 Y113.1 E76.52295
G1 X121.9 Y113.1 E76.81564
G1 X121.9 Y121.9 E77.10833
G1 X113.1 Y121.9 E77.40102
G0 F9000 X112.7 Y122.3
;TYPE:WALL-OUTER
G1 F600 X112.7 Y112.7 E77.72032
G1 X122.3 Y112.7 E78.03961
G1 X122.3 Y122.3 E78.35891
G1 X112.7 Y122.3 E78.67821
G0 F9000 X113.028 Y121.972
;MESH:NONMESH
G0 F300 X113.028 Y121.972 Z3.8
G0 F9000 X113.1 Y121.9
;TIME_ELAPSED:184.330160
;LAYER:18
;TYPE:WALL-INNER
;MESH:cube.stl
G1 F600 X113.1 Y113.1 E78.9709
G1 X121.9 Y113.1 E79.26359
G1 X121.9 Y121.9 E79.55628
G1 X113.1 Y121.9 E79.84896
G0 F9000 X112.7 Y122.3
;TYPE:WALL-OUTER
G1 F600 X112.7 Y112.7 E80.16826
G1 X122.3 Y112.7 E80.48756
G1 X122.3 Y122.3 E80.80686
G1 X112.7 Y122.3 E81.12615
G0 F9000 X113.028 Y121.972
;MESH:NONMESH
G0 F300 X113.028 Y121.972 Z4
G0 F9000 X113.1 Y121.9
;TIME_ELAPSED:191.893887
;LAYER:19
;TYPE:WALL-INNER
;MESH:cube.stl
G1 F600 X113.1 Y113.1 E81.41884
G1 X121.9 Y113.1 E81.71153
G1 X121.9 Y121.9 E82.00422
G1 X113.1 Y121.9 E82.29691
G0 F9000 X112.7 Y122.3
;TYPE:WALL-OUTER
G1 F600 X112.7 Y112.7 E82.61621
G1 X122.3 Y112.7 E82.93551
G1 X122.3 Y122.3 E83.2548
G1 X112.7 Y122.3 E83.5741
G0 F9000 X113.028 Y121.972
;MESH:NONMESH
G0 F300 X113.028 Y121.972 Z4.2
G0 F9000 X113.1 Y121.9
;TIME_ELAPSED:199.457613
;LAYER:20
;TYPE:WALL-INNER
;MESH:cube.stl
G1 F600 X113.1 Y113.1 E83.86679
G1 X121.9 Y113.1 E84.15948
G1 X121.9 Y121.9 E84.45217
G1 X113.1 Y121.9 E84.74486
G0 F9000 X112.7 Y122.3
;TYPE:WALL-OUTER
G1 F600 X112.7 Y112.7 E85.06415
G1 X122.3 Y112.7 E85.38345
G1 X122.3 Y122.3 E85.70275
G1 X112.7 Y122.3 E86.02205
G0 F9000 X113.028 Y121.972
;MESH:NONMESH
G0 F300 X113.028 Y121.972 Z4.4
G0 F9000 X113.1 Y121.9
;TIME_ELAPSED:207.021340
;LAYER:21
;TYPE:WALL-INNER
;MESH:cube.stl
G1 F600 X113.1 Y113.1 E86.31473
G1 X121.9 Y113.1 E86.60742
G1 X121.9 Y121.9 E86.90011
G1 X113.1 Y121.9 E87.1928
G0 F9000 X112.7 Y122.3
;TYPE:WALL-OUTER
G1 F600 X112.7 Y112.7 E87.5121
G1 X122.3 Y112.7 E87.8314
G1 X122.3 Y122.3 E88.15069
G1 X112.7 Y122.3 E88.46999
G0 F9000 X113.028 Y121.972
;MESH:NONMESH
G0 F300 X113.028 Y121.972 Z4.6
G0 F9000 X113.1 Y121.9
;TIME_ELAPSED:214.585066
;LAYER:22
;TYPE:WALL-INNER
;MESH:cube.stl
G1 F600 X113.1 Y113.1 E88.76268
G1 X121.9 Y113.1 E89.05537
G1 X121.9 Y121.9 E89.34806
G1 X113.1 Y121.9 E89.64075
G0 F9000 X112.7 Y122.3
;TYPE:WALL-OUTER
G1 F600 X112.7 Y112.7 E89.96005
G1 X122.3 Y112.7 E90.27934
G1 X122.3 Y122.3 E90.59864
G1 X112.7 Y122.3 E90.91794
G0 F9000 X113.028 Y121.972
;MESH:NONMESH
G0 F300 X113.028 Y121.972 Z4.8
G0 F9000 X113.1 Y121.9
;TIME_ELAPSED:222.148793
;LAYER:23
;TYPE:WALL-INNER
;MESH:cube.stl
G1 F600 X113.1 Y113.1 E91.21063
G1 X121.9 Y113.1 E91.50332
G1 X121.9 Y121.9 E91.79601
G1 X113.1 Y121.9 E92.08869
G0 F9000 X112.7 Y122.3
;TYPE:WALL-OUTER
G1 F600 X112.7 Y112.7 E92.40799
G1 X122.3 Y112.7 E92.72729
G1 X122.3 Y122.3 E93.04659
G1 X112.7 Y122.3 E93.36588
G0 F9000 X113.028 Y121.972
;MESH:NONMESH
G0 F300 X113.028 Y121.972 Z5
G0 F9000 X113.1 Y121.9
;TIME_ELAPSED:229.712519
;LAYER:24
;TYPE:WALL-INNER
;MESH:cube.stl
G1 F600 X113.1 Y113.1 E93.65857
G1 X121.9 Y113.1 E93.95126
G1 X121.9 Y121.9 E94.24395
G1 X113.1 Y121.9 E94.53664
G0 F9000 X112.7 Y122.3
;TYPE:WALL-OUTER
G1 F600 X112.7 Y112.7 E94.85594
G1 X122.3 Y112.7 E95.17523
G1 X122.3 Y122.3 E95.49453
G1 X112.7 Y122.3 E95.81383
G0 F9000 X113.028 Y121.972
;MESH:NONMESH
G0 F300 X113.028 Y121.972 Z5.2
G0 F9000 X113.1 Y121.9
;TIME_ELAPSED:237.276246
;LAYER:25
;TYPE:WALL-INNER
;MESH:cube.stl
G1 F600 X113.1 Y113.1 E96.10652
G1 X121.9 Y113.1 E96.39921
G1 X121.9 Y121.9 E96.6919
G1 X113.1 Y121.9 E96.98459
G0 F9000 X112.7 Y122.3
;TYPE:WALL-OUTER
G1 F600 X112.7 Y112.7 E97.30388
G1 X122.3 Y112.7 E97.62318
G1 X122.3 Y122.3 E97.94248
G1 X112.7 Y122.3 E98.26178
G0 F9000 X113.028 Y121.972
;MESH:NONMESH
G0 F300 X113.028 Y121.972 Z5.4
G0 F9000 X113.1 Y121.9
;TIME_ELAPSED:244.839972
;LAYER:26
;TYPE:WALL-INNER
;MESH:cube.stl
G1 F600 X113.1 Y113.1 E98.55446
G1 X121.9 Y113.1 E98.84715
G1 X121.9 Y121.9 E99.13984
G1 X113.1 Y121.9 E99.43253
G0 F9000 X112.7 Y122.3
;TYPE:WALL-OUTER
G1 F600 X112.7 Y112.7 E99.75183
G1 X122.3 Y112.7 E100.07113
G1 X122.3 Y122.3 E100.39042
G1 X112.7 Y122.3 E100.70972
G0 F9000 X113.028 Y121.972
;MESH:NONMESH
G0 F300 X113.028 Y121.972 Z5.6
G0 F9000 X113.1 Y121.9
;TIME_ELAPSED:252.403699
;LAYER:27
;TYPE:WALL-INNER
;MESH:cube.stl
G1 F600 X113.1 Y113.1 E101.00241
G1 X121.9 Y113.1 E101.2951
G1 X121.9 Y121.9 E101.58779
G1 X113.1 Y121.9 E101.88048
G0 F9000 X112.7 Y122.3
;TYPE:WALL-OUTER
G1 F600 X112.7 Y112.7 E102.19978
G1 X122.3 Y112.7 E102.51907
G1 X122.3 Y122.3 E102.83837
G1 X112.7 Y122.3 E103.15767
G0 F9000 X113.028 Y121.972
;MESH:NONMESH
G0 F300 X113.028 Y121.972 Z5.8
G0 F9000 X113.1 Y121.9
;TIME_ELAPSED:259.967425
;LAYER:28
;TYPE:WALL-INNER
;MESH:cube.stl
G1 F600 X113.1 Y113.1 E103.45036
G1 X121.9 Y113.1 E103.74305
G1 X121.9 Y121.9 E104.03573
G1 X113.1 Y121.9 E104.32842
G0 F9000 X112.7 Y122.3
;TYPE:WALL-OUTER
G1 F600 X112.7 Y112.7 E104.64772
G1 X122.3 Y112.7 E104.96702
G1 X122.3 Y122.3 E105.28632
G1 X112.7 Y122.3 E105.60561
G0 F9000 X113.028 Y121.972
;MESH:NONMESH
G0 F300 X113.028 Y121.972 Z6
G0 F9000 X113.1 Y121.9
;TIME_ELAPSED:267.531152
;LAYER:29
;TYPE:WALL-INNER
;MESH:cube.stl
G1 F600 X113.1 Y113.1 E105.8983
G1 X121.9 Y113.1 E106.19099
G1 X121.9 Y121.9 E106.48368
G1 X113.1 Y121.9 E106.77637
G0 F9000 X112.7 Y122.3
;TYPE:WALL-OUTER
G1 F600 X112.7 Y112.7 E107.09567
G1 X122.3 Y112.7 E107.41496
G1 X122.3 Y122.3 E107.73426
G1 X112.7 Y122.3 E108.05356
G0 F9000 X113.028 Y121.972
;MESH:NONMESH
G0 F300 X113.028 Y121.972 Z6.2
G0 F9000 X113.1 Y121.9
;TIME_ELAPSED:275.094878
;LAYER:30
;TYPE:WALL-INNER
;MESH:cube.stl
G1 F600 X113.1 Y113.1 E108.34625
G1 X121.9 Y113.1 E108.63894
G1 X121.9 Y121.9 E108.93163
G1 X113.1 Y121.9 E109.22432
G0 F9000 X112.7 Y122.3
;TYPE:WALL-OUTER
G1 F600 X112.7 Y112.7 E109.54361
G1 X122.3 Y112.7 E109.86291
G1 X122.3 Y122.3 E110.18221
G1 X112.7 Y122.3 E110.50151
G0 F9000 X113.028 Y121.972
;MESH:NONMESH
G0 F300 X113.028 Y121.972 Z6.4
G0 F9000 X113.1 Y121.9
;TIME_ELAPSED:282.658605
;LAYER:31
;TYPE:WALL-INNER
;MESH:cube.stl
G1 F600 X113.1 Y113.1 E110.79419
G1 X121.9 Y113.1 E111.08688
G1 X121.9 Y121.9 E111.37957
G1 X113.1 Y121.9 E111.67226
G0 F9000 X112.7 Y122.3
;TYPE:WALL-OUTER
G1 F600 X112.7 Y112.7 E111.99156
G1 X122.3 Y112.7 E112.31086
G1 X122.3 Y122.3 E112.63015
G1 X112.7 Y122.3 E112.94945
G0 F9000 X113.028 Y121.972
;MESH:NONMESH
G0 F300 X113.028 Y121.972 Z6.6
G0 F9000 X113.1 Y121.9
;TIME_ELAPSED:290.222331
;LAYER:32
;TYPE:WALL-INNER
;MESH:cube.stl
G1 F600 X113.1 Y113.1 E113.24214
G1 X121.9 Y113.1 E113.53483
G1 X121.9 Y121.9 E113.82752
G1 X113.1 Y121.9 E114.12021
G0 F9000 X112.7 Y122.3
;TYPE:WALL-OUTER
G1 F600 X112.7 Y112.7 E114.43951
G1 X122.3 Y112.7 E114.7588
G1 X122.3 Y122.3 E115.0781
G1 X112.7 Y122.3 E115.3974
G0 F9000 X113.028 Y121.972
;MESH:NONMESH
G0 F300 X113.028 Y121.972 Z6.8
G0 F9000 X113.1 Y121.9
;TIME_ELAPSED:297.786058
;LAYER:33
;TYPE:WALL-INNER
;MESH:cube.stl
G1 F600 X113.1 Y113.1 E115.69009
G1 X121.9 Y113.1 E115.98278
G1 X121.9 Y121.9 E116.27546
G1 X113.1 Y121.9 E116.56815
G0 F9000 X112.7 Y122.3
;TYPE:WALL-OUTER
G1 F600 X112.7 Y112.7 E116.88745
G1 X122.3 Y112.7 E117.20675
G1 X122.3 Y122.3 E117.52605
G1 X112.7 Y122.3 E117.84534
G0 F9000 X113.028 Y121.972
;MESH:NONMESH
G0 F300 X113.028 Y121.972 Z7
G0 F9000 X113.1 Y121.9
;TIME_ELAPSED:305.349785
;LAYER:34
;TYPE:WALL-INNER
;MESH:cube.stl
G1 F600 X113.1 Y113.1 E118.13803
G1 X121.9 Y113.1 E118.43072
G1 X121.9 Y121.9 E118.72341
G1 X113.1 Y121.9 E119.0161
G0 F9000 X112.7 Y122.3
;TYPE:WALL-OUTER
G1 F600 X112.7 Y112.7 E119.3354
G1 X122.3 Y112.7 E119.65469
G1 X122.3 Y122.3 E119.97399
G1 X112.7 Y122.3 E120.29329
G0 F9000 X113.028 Y121.972
;MESH:NONMESH
G0 F300 X113.028 Y121.972 Z7.2
G0 F9000 X113.1 Y121.9
;TIME_ELAPSED:312.913511
;LAYER:35
;TYPE:WALL-INNER
;MESH:cube.stl
G1 F600 X113.1 Y113.1 E120.58598
G1 X121.9 Y113.1 E120.87867
G1 X121.9 Y121.9 E121.17136
G1 X113.1 Y121.9 E121.46405
G0 F9000 X112.7 Y122.3
;TYPE:WALL-OUTER
G1 F600 X112.7 Y112.7 E121.78334
G1 X122.3 Y112.7 E122.10264
G1 X122.3 Y122.3 E122.42194
G1 X112.7 Y122.3 E122.74123
G0 F9000 X113.028 Y121.972
;MESH:NONMESH
G0 F300 X113.028 Y121.972 Z7.4
G0 F9000 X113.1 Y121.9
;TIME_ELAPSED:320.477238
;LAYER:36
;TYPE:WALL-INNER
;MESH:cube.stl
G1 F600 X113.1 Y113.1 E123.03392
G1 X121.9 Y113.1 E123.32661
G1 X121.9 Y121.9 E123.6193
G1 X113.1 Y121.9 E123.91199
G0 F9000 X112.7 Y122.3
;TYPE:WALL-OUTER
G1 F600 X112.7 Y112.7 E124.23129
G1 X122.3 Y112.7 E124.55059
G1 X122.3 Y122.3 E124.86988
G1 X112.7 Y122.3 E125.18918
G0 F9000 X113.028 Y121.972
;MESH:NONMESH
G0 F300 X113.028 Y121.972 Z7.6
G0 F9000 X113.1 Y121.9
;TIME_ELAPSED:328.040964
;LAYER:37
;TYPE:WALL-INNER
;MESH:cube.stl
G1 F600 X113.1 Y113.1 E125.48187
G1 X121.9 Y113.1 E125.77456
G1 X121.9 Y121.9 E126.06725
G1 X113.1 Y121.9 E126.35994
G0 F9000 X112.7 Y122.3
;TYPE:WALL-OUTER
G1 F600 X112.7 Y112.7 E126.67923
G1 X122.3 Y112.7 E126.99853
G1 X122.3 Y122.3 E127.31783
G1 X112.7 Y122.3 E127.63713
G0 F9000 X113.028 Y121.972
;MESH:NONMESH
G0 F300 X113.028 Y121.972 Z7.8
G0 F9000 X113.1 Y121.9
;TIME_ELAPSED:335.604691
;LAYER:38
;TYPE:WALL-INNER
;MESH:cube.stl
G1 F600 X113.1 Y113.1 E127.92982
G1 X121.9 Y113.1 E128.22251
G1 X121.9 Y121.9 E128.51519
G1 X113.1 Y121.9 E128.80788
G0 F9000 X112.7 Y122.3
;TYPE:WALL-OUTER
G1 F600 X112.7 Y112.7 E129.12718
G1 X122.3 Y112.7 E129.44648
G1 X122.3 Y122.3 E129.76578
G1 X112.7 Y122.3 E130.08507
G0 F9000 X113.028 Y121.972
;MESH:NONMESH
G0 F300 X113.028 Y121.972 Z8
G0 F9000 X113.1 Y121.9
;TIME_ELAPSED:343.168417
;LAYER:39
;TYPE:WALL-INNER
;MESH:cube.stl
G1 F600 X113.1 Y113.1 E130.37776
G1 X121.9 Y113.1 E130.67045
G1 X121.9 Y121.9 E130.96314
G1 X113.1 Y121.9 E131.25583
G0 F9000 X112.7 Y122.3
;TYPE:WALL-OUTER
G1 F600 X112.7 Y112.7 E131.57513
G1 X122.3 Y112.7 E131.89442
G1 X122.3 Y122.3 E132.21372
G1 X112.7 Y122.3 E132.53302
G0 F9000 X113.028 Y121.972
;MESH:NONMESH
G0 F300 X113.028 Y121.972 Z8.2
G0 F9000 X113.1 Y121.9
;TIME_ELAPSED:350.732144
;LAYER:40
;TYPE:WALL-INNER
;MESH:cube.stl
G1 F600 X113.1 Y113.1 E132.82571
G1 X121.9 Y113.1 E133.1184
G1 X121.9 Y121.9 E133.41109
G1 X113.1 Y121.9 E133.70378
G0 F9000 X112.7 Y122.3
;TYPE:WALL-OUTER
G1 F600 X112.7 Y112.7 E134.02307
G1 X122.3 Y112.7 E134.34237
G1 X122.3 Y122.3 E134.66167
G1 X112.7 Y122.3 E134.98096
G0 F9000 X113.028 Y121.972
;MESH:NONMESH
G0 F300 X113.028 Y121.972 Z8.4
G0 F9000 X113.1 Y121.9
;TIME_ELAPSED:358.295870
;LAYER:41
;TYPE:WALL-INNER
;MESH:cube.stl
G1 F600 X113.1 Y113.1 E135.27365
G1 X121.9 Y113.1 E135.56634
G1 X121.9 Y121.9 E135.85903
G1 X113.1 Y121.9 E136.15172
G0 F9000 X112.7 Y122.3
;TYPE:WALL-OUTER
G1 F600 X112.7 Y112.7 E136.47102
G1 X122.3 Y112.7 E136.79032
G1 X122.3 Y122.3 E137.10961
G1 X112.7 Y122.3 E137.42891
G0 F9000 X113.028 Y121.972
;MESH:NONMESH
G0 F300 X113.028 Y121.972 Z8.6
G0 F9000 X113.1 Y121.9
;TIME_ELAPSED:365.859597
;LAYER:42
;TYPE:WALL-INNER
;MESH:cube.stl
G1 F600 X113.1 Y113.1 E137.7216
G1 X121.9 Y113.1 E138.01429
G1 X121.9 Y121.9 E138.30698
G1 X113.1 Y121.9 E138.59967
G0 F9000 X112.7 Y122.3
;TYPE:WALL-OUTER
G1 F600 X112.7 Y112.7 E138.91896
G1 X122.3 Y112.7 E139.23826
G1 X122.3 Y122.3 E139.55756
G1 X112.7 Y122.3 E139.87686
G0 F9000 X113.028 Y121.972
;MESH:NONMESH
G0 F300 X113.028 Y121.972 Z8.8
G0 F9000 X113.1 Y121.9
;TIME_ELAPSED:373.423323
;LAYER:43
;TYPE:WALL-INNER
;MESH:cube.stl
G1 F600 X113.1 Y113.1 E140.16955
G1 X121.9 Y113.1 E140.46223
G1 X121.9 Y121.9 E140.75492
G1 X113.1 Y121.9 E141.04761
G0 F9000 X112.7 Y122.3
;TYPE:WALL-OUTER
G1 F600 X112.7 Y112.7 E141.36691
G1 X122.3 Y112.7 E141.68621
G1 X122.3 Y122.3 E142.00551
G1 X112.7 Y122.3 E142.3248
G0 F9000 X113.028 Y121.972
;MESH:NONMESH
G0 F300 X113.028 Y121.972 Z9
G0 F9000 X113.1 Y121.9
;TIME_ELAPSED:380.987050
;LAYER:44
;TYPE:WALL-INNER
;MESH:cube.stl
G1 F600 X113.1 Y113.1 E142.61749
G1 X121.9 Y113.1 E142.91018
G1 X121.9 Y121.9 E143.20287
G1 X113.1 Y121.9 E143.49556
G0 F9000 X112.7 Y122.3
;TYPE:WALL-OUTER
G1 F600 X112.7 Y112.7 E143.81486
G1 X122.3 Y112.7 E144.13415
G1 X122.3 Y122.3 E144.45345
G1 X112.7 Y122.3 E144.77275
G0 F9000 X113.028 Y121.972
;MESH:NONMESH
G0 F300 X113.028 Y121.972 Z9.2
G0 F9000 X113.1 Y121.9
;TIME_ELAPSED:388.550776
;LAYER:45
;TYPE:WALL-INNER
;MESH:cube.stl
G1 F600 X113.1 Y113.1 E145.06544
G1 X121.9 Y113.1 E145.35813
G1 X121.9 Y121.9 E145.65082
G1 X113.1 Y121.9 E145.94351
G0 F9000 X112.7 Y122.3
;TYPE:WALL-OUTER
G1 F600 X112.7 Y112.7 E146.2628
G1 X122.3 Y112.7 E146.5821
G1 X122.3 Y122.3 E146.9014
G1 X112.7 Y122.3 E147.22069
G0 F9000 X113.028 Y121.972
;MESH:NONMESH
G0 F300 X113.028 Y121.972 Z9.4
G0 F9000 X113.1 Y121.9
;TIME_ELAPSED:396.114503
;LAYER:46
;TYPE:WALL-INNER
;MESH:cube.stl
G1 F1500 X113.1 Y113.1 E147.51338
G1 X121.9 Y113.1 E147.80607
G1 X121.9 Y121.9 E148.09876
G1 X113.1 Y121.9 E148.39145
G0 F9000 X112.7 Y122.3
;TYPE:WALL-OUTER
G1 F1500 X112.7 Y112.7 E148.71075
G1 X122.3 Y112.7 E149.03005
G1 X122.3 Y122.3 E149.34934
G1 X112.7 Y122.3 E149.66864
G0 F9000 X112.97 Y122.03
G0 X113.21 Y121.51
G0 X113.49 Y121.51
;TYPE:SKIN
G1 F1500 X113.49 Y113.49 E149.93539
G1 X121.51 Y113.49 E150.20213
G1 X121.51 Y121.51 E150.46888
G1 X113.49 Y121.51 E150.73563
G0 F9000 X113.995 Y121.349
G1 F1500 X113.649 Y121.003 E150.7519
G0 F9000 X113.649 Y120.437
G1 F1500 X114.561 Y121.349 E150.7948
G0 F9000 X115.126 Y121.349
G1 F1500 X113.649 Y119.872 E150.86427
G0 F9000 X113.649 Y119.306
G1 F1500 X115.692 Y121.349 E150.96037
G0 F9000 X116.258 Y121.349
G1 F1500 X113.649 Y118.74 E151.08309
G0 F9000 X113.649 Y118.175
G1 F1500 X116.823 Y121.349 E151.23238
G0 F9000 X117.389 Y121.349
G1 F1500 X113.649 Y117.609 E151.4083
G0 F9000 X113.649 Y117.043
G1 F1500 X117.955 Y121.349 E151.61084
G0 F9000 X118.52 Y121.349
G1 F1500 X113.649 Y116.478 E151.83996
G0 F9000 X113.649 Y115.912
G1 F1500 X119.086 Y121.349 E152.0957
G0 F9000 X119.652 Y121.349
G1 F1500 X113.649 Y115.346 E152.37806
G0 F9000 X113.649 Y114.781
G1 F1500 X120.218 Y121.349 E152.68702
G0 F9000 X120.783 Y121.349
G1 F1500 X113.649 Y114.215 E153.02258
G0 F9000 X113.649 Y113.649
G1 F1500 X121.349 Y121.349 E153.38477
G0 F9000 X121.349 Y120.783
G1 F1500 X114.216 Y113.65 E153.72028
G0 F9000 X114.781 Y113.65
G1 F1500 X121.349 Y120.218 E154.02922
G0 F9000 X121.349 Y119.652
G1 F1500 X115.347 Y113.65 E154.31154
G0 F9000 X115.913 Y113.65
G1 F1500 X121.349 Y119.086 E154.56723
G0 F9000 X121.349 Y118.52
G1 F1500 X116.478 Y113.65 E154.79632
G0 F9000 X117.044 Y113.65
G1 F1500 X121.349 Y117.955 E154.99882
G0 F9000 X121.349 Y117.389
G1 F1500 X117.61 Y113.65 E155.17469
G0 F9000 X118.175 Y113.65
G1 F1500 X121.349 Y116.823 E155.32396
G0 F9000 X121.349 Y116.258
G1 F1500 X118.741 Y113.65 E155.44663
G0 F9000 X119.307 Y113.65
G1 F1500 X121.349 Y115.692 E155.54268
G0 F9000 X121.349 Y115.126
G1 F1500 X119.872 Y113.65 E155.61213
G0 F9000 X120.438 Y113.65
G1 F1500 X121.349 Y114.561 E155.65498
G0 F9000 X121.349 Y113.995
G1 F1500 X121.004 Y113.65 E155.67121
G0 F9000 X121.004 Y113.3
;MESH:NONMESH
G0 F300 X121.004 Y113.3 Z9.6
G0 F9000 X121.004 Y113.21
G0 X113.282 Y113.282
G0 X113.1 Y121.9
;TIME_ELAPSED:409.484138
;LAYER:47
;TYPE:WALL-INNER
;MESH:cube.stl
G1 F1500 X113.1 Y113.1 E155.9639
G1 X121.9 Y113.1 E156.25659
G1 X121.9 Y121.9 E156.54928
G1 X113.1 Y121.9 E156.84197
G0 F9000 X112.7 Y122.3
;TYPE:WALL-OUTER
G1 F1500 X112.7 Y112.7 E157.16126
G1 X122.3 Y112.7 E157.48056
G1 X122.3 Y122.3 E157.79986
G1 X112.7 Y122.3 E158.11916
G0 F9000 X112.97 Y122.03
G0 X113.21 Y121.51
G0 X113.49 Y121.51
;TYPE:SKIN
G1 F1500 X113.49 Y113.49 E158.3859
G1 X121.51 Y113.49 E158.65265
G1 X121.51 Y121.51 E158.9194
G1 X113.49 Y121.51 E159.18614
G0 F9000 X113.21 Y121.51
G0 X113.21 Y113.755
G0 X113.65 Y113.755
G1 F1500 X113.755 Y113.649 E159.1911
G0 F9000 X114.321 Y113.649
G1 F1500 X113.65 Y114.32 E159.22267
G0 F9000 X113.65 Y114.886
G1 F1500 X114.887 Y113.649 E159.28085
G0 F9000 X115.452 Y113.649
G1 F1500 X113.65 Y115.452 E159.36563
G0 F9000 X113.65 Y116.017
G1 F1500 X116.018 Y113.649 E159.47702
G0 F9000 X116.584 Y113.649
G1 F1500 X113.65 Y116.583 E159.61502
G0 F9000 X113.65 Y117.149
G1 F1500 X117.149 Y113.649 E159.77963
G0 F9000 X117.715 Y113.649
G1 F1500 X113.65 Y117.714 E159.97084
G0 F9000 X113.65 Y118.28
G1 F1500 X118.281 Y113.649 E160.18866
G0 F9000 X118.846 Y113.649
G1 F1500 X113.65 Y118.846 E160.43309
G0 F9000 X113.65 Y119.411
G1 F1500 X119.412 Y113.649 E160.70412
G0 F9000 X119.978 Y113.649
G1 F1500 X113.65 Y119.977 E161.00177
G0 F9000 X113.65 Y120.543
G1 F1500 X120.544 Y113.649 E161.32604
G0 F9000 X121.109 Y113.649
G1 F1500 X113.65 Y121.109 E161.67691
G0 F9000 X113.975 Y121.349
G1 F1500 X121.349 Y113.975 E162.02376
G0 F9000 X121.349 Y114.541
G1 F1500 X114.541 Y121.349 E162.34399
G0 F9000 X115.107 Y121.349
G1 F1500 X121.349 Y115.107 E162.63759
G0 F9000 X121.349 Y115.672
G1 F1500 X115.672 Y121.349 E162.90462
G0 F9000 X116.238 Y121.349
G1 F1500 X121.349 Y116.238 E163.14503
G0 F9000 X121.349 Y116.804
G1 F1500 X116.804 Y121.349 E163.35881
G0 F9000 X117.369 Y121.349
G1 F1500 X121.349 Y117.369 E163.54602
G0 F9000 X121.349 Y117.935
G1 F1500 X117.935 Y121.349 E163.7066
G0 F9000 X118.501 Y121.349
G1 F1500 X121.349 Y118.501 E163.84056
G0 F9000 X121.349 Y119.066
G1 F1500 X119.066 Y121.349 E163.94795
G0 F9000 X119.632 Y121.349
G1 F1500 X121.349 Y119.632 E164.02871
G0 F9000 X121.349 Y120.198
G1 F1500 X120.198 Y121.349 E164.08285
G0 F9000 X120.763 Y121.349
G1 F1500 X121.349 Y120.763 E164.11042
G0 F9000 X121.7 Y120.763
;MESH:NONMESH
G0 F300 X121.7 Y120.763 Z9.8
G0 F9000 X121.79 Y120.763
G0 X121.718 Y121.718
G0 X113.1 Y121.9
;TIME_ELAPSED:422.901848
;LAYER:48
;TYPE:WALL-INNER
;MESH:cube.stl
G1 F1500 X113.1 Y113.1 E164.4031
G1 X121.9 Y113.1 E164.69579
G1 X121.9 Y121.9 E164.98848
G1 X113.1 Y121.9 E165.28117
G0 F9000 X112.7 Y122.3
;TYPE:WALL-OUTER
G1 F1500 X112.7 Y112.7 E165.60047
G1 X122.3 Y112.7 E165.91977
G1 X122.3 Y122.3 E166.23906
G1 X112.7 Y122.3 E166.55836
G0 F9000 X112.97 Y122.03
G0 X113.21 Y121.51
G0 X113.49 Y121.51
;TYPE:SKIN
G1 F1500 X113.49 Y113.49 E166.82511
G1 X121.51 Y113.49 E167.09185
G1 X121.51 Y121.51 E167.3586
G1 X113.49 Y121.51 E167.62535
G0 F9000 X113.995 Y121.349
G1 F1500 X113.649 Y121.003 E167.64162
G0 F9000 X113.649 Y120.437
G1 F1500 X114.561 Y121.349 E167.68452
G0 F9000 X115.126 Y121.349
G1 F1500 X113.649 Y119.872 E167.75399
G0 F9000 X113.649 Y119.306
G1 F1500 X115.692 Y121.349 E167.85009
G0 F9000 X116.258 Y121.349
G1 F1500 X113.649 Y118.74 E167.97281
G0 F9000 X113.649 Y118.175
G1 F1500 X116.823 Y121.349 E168.1221
G0 F9000 X117.389 Y121.349
G1 F1500 X113.649 Y117.609 E168.29802
G0 F9000 X113.649 Y117.043
G1 F1500 X117.955 Y121.349 E168.50056
G0 F9000 X118.52 Y121.349
G1 F1500 X113.649 Y116.478 E168.72968
G0 F9000 X113.649 Y115.912
G1 F1500 X119.086 Y121.349 E168.98542
G0 F9000 X119.652 Y121.349
G1 F1500 X113.649 Y115.346 E169.26778
G0 F9000 X113.649 Y114.781
G1 F1500 X120.218 Y121.349 E169.57674
G0 F9000 X120.783 Y121.349
G1 F1500 X113.649 Y114.215 E169.91231
G0 F9000 X113.649 Y113.649
G1 F1500 X121.349 Y121.349 E170.27449
G0 F9000 X121.349 Y120.783
G1 F1500 X114.216 Y113.65 E170.61
G0 F9000 X114.781 Y113.65
G1 F1500 X121.349 Y120.218 E170.91894
G0 F9000 X121.349 Y119.652
G1 F1500 X115.347 Y113.65 E171.20126
G0 F9000 X115.913 Y113.65
G1 F1500 X121.349 Y119.086 E171.45695
G0 F9000 X121.349 Y118.52
G1 F1500 X116.478 Y113.65 E171.68604
G0 F9000 X117.044 Y113.65
G1 F1500 X121.349 Y117.955 E171.88854
G0 F9000 X121.349 Y117.389
G1 F1500 X117.61 Y113.65 E172.06441
G0 F9000 X118.175 Y113.65
G1 F1500 X121.349 Y116.823 E172.21368
G0 F9000 X121.349 Y116.258
G1 F1500 X118.741 Y113.65 E172.33635
G0 F9000 X119.307 Y113.65
G1 F1500 X121.349 Y115.692 E172.4324
G0 F9000 X121.349 Y115.126
G1 F1500 X119.872 Y113.65 E172.50185
G0 F9000 X120.438 Y113.65
G1 F1500 X121.349 Y114.561 E172.5447
G0 F9000 X121.349 Y113.995
G1 F1500 X121.004 Y113.65 E172.56093
G0 F9000 X121.004 Y113.3
;MESH:NONMESH
G0 F300 X121.004 Y113.3 Z10
G0 F9000 X121.004 Y113.21
G0 X113.282 Y113.282
G0 X113.1 Y121.9
;TIME_ELAPSED:436.271483
;LAYER:49
;TYPE:WALL-INNER
;MESH:cube.stl
G1 F1500 X113.1 Y113.1 E172.85362
G1 X121.9 Y113.1 E173.14631
G1 X121.9 Y121.9 E173.439
G1 X113.1 Y121.9 E173.73169
G0 F9000 X112.7 Y122.3
;TYPE:WALL-OUTER
G1 F1500 X112.7 Y112.7 E174.05099
G1 X122.3 Y112.7 E174.37028
G1 X122.3 Y122.3 E174.68958
G1 X112.7 Y122.3 E175.00888
G0 F9000 X112.97 Y122.03
G0 X113.21 Y121.51
G0 X113.49 Y121.51
;TYPE:SKIN
G1 F1500 X113.49 Y113.49 E175.27562
G1 X121.51 Y113.49 E175.54237
G1 X121.51 Y121.51 E175.80912
G1 X113.49 Y121.51 E176.07586
G0 F9000 X113.21 Y121.51
G0 X113.21 Y113.755
G0 X113.65 Y113.755
G1 F1500 X113.755 Y113.649 E176.08083
G0 F9000 X114.321 Y113.649
G1 F1500 X113.65 Y114.32 E176.11239
G0 F9000 X113.65 Y114.886
G1 F1500 X114.887 Y113.649 E176.17057
G0 F9000 X115.452 Y113.649
G1 F1500 X113.65 Y115.452 E176.25536
G0 F9000 X113.65 Y116.017
G1 F1500 X116.018 Y113.649 E176.36674
G0 F9000 X116.584 Y113.649
G1 F1500 X113.65 Y116.583 E176.50475
G0 F9000 X113.65 Y117.149
G1 F1500 X117.149 Y113.649 E176.66935
G0 F9000 X117.715 Y113.649
G1 F1500 X113.65 Y117.714 E176.86056
G0 F9000 X113.65 Y118.28
G1 F1500 X118.281 Y113.649 E177.07838
G0 F9000 X118.846 Y113.649
G1 F1500 X113.65 Y118.846 E177.32281
G0 F9000 X113.65 Y119.411
G1 F1500 X119.412 Y113.649 E177.59384
G0 F9000 X119.978 Y113.649
G1 F1500 X113.65 Y119.977 E177.89149
G0 F9000 X113.65 Y120.543
G1 F1500 X120.544 Y113.649 E178.21576
G0 F9000 X121.109 Y113.649
G1 F1500 X113.65 Y121.109 E178.56663
G0 F9000 X113.975 Y121.349
G1 F1500 X121.349 Y113.975 E178.91348
G0 F9000 X121.349 Y114.541
G1 F1500 X114.541 Y121.349 E179.23371
G0 F9000 X115.107 Y121.349
G1 F1500 X121.349 Y115.107 E179.52732
G0 F9000 X121.349 Y115.672
G1 F1500 X115.672 Y121.349 E179.79434
G0 F9000 X116.238 Y121.349
G1 F1500 X121.349 Y116.238 E180.03475
G0 F9000 X121.349 Y116.804
G1 F1500 X116.804 Y121.349 E180.24853
G0 F9000 X117.369 Y121.349
G1 F1500 X121.349 Y117.369 E180.43574
G0 F9000 X121.349 Y117.935
G1 F1500 X117.935 Y121.349 E180.59632
G0 F9000 X118.501 Y121.349
G1 F1500 X121.349 Y118.501 E180.73028
G0 F9000 X121.349 Y119.066
G1 F1500 X119.066 Y121.349 E180.83767
G0 F9000 X119.632 Y121.349
G1 F1500 X121.349 Y119.632 E180.91843
G0 F9000 X121.349 Y120.198
G1 F1500 X120.198 Y121.349 E180.97257
G0 F9000 X120.763 Y121.349
G1 F1500 X121.349 Y120.763 E181.00014
G0 F9000 X121.7 Y120.763
;TIME_ELAPSED:449.303649
G1 F1500 E174.50014
M140 S0
M107
G91 ;Relative positioning
G1 E-2 F2700 ;Retract a bit
G1 E-2 Z0.2 F2400 ;Retract and raise Z
G1 X5 Y5 F3000 ;Wipe out
G1 Z10 ;Raise Z more
G90 ;Absolute positionning

G1 X0 Y235 ;Present print
M106 S0 ;Turn-off fan
M104 S0 ;Turn-off hotend
M140 S0 ;Turn-off bed

M84 X Y E ;Disable all steppers but Z

M82 ;absolute extrusion mode
M104 S0
;End of Gcode

		}

}